; generated by Slic3r 1.3.0 on 2019-01-27 at 21:42:02

; external perimeters extrusion width = 0.55mm (6.64mm^3/s)
; perimeters extrusion width = 0.52mm (12.53mm^3/s)
; infill extrusion width = 0.52mm (16.71mm^3/s)
; solid infill extrusion width = 0.52mm (4.18mm^3/s)
; top infill extrusion width = 0.52mm (3.13mm^3/s)

M107
M104 S200 ; set temperature

; Filament gcode

M109 S200 ; set temperature and wait for it to be reached
G21 ; set units to millimeters
G90 ; use absolute coordinates
M82 ; use absolute distances for extrusion
G92 E0
G1 Z0.350 F7800.000
layer_num
G1 E-2.00000 F2400.00000
G92 E0
G1 X59.828 Y59.402 F7800.000
G1 E2.00000 F2400.00000
G1 F1800
G1 X60.047 Y59.400 E2.00680
G1 X60.266 Y59.427 E2.01360
G1 X60.479 Y59.483 E2.02043
G1 X60.682 Y59.567 E2.02723
G1 X60.871 Y59.676 E2.03397
G1 X61.144 Y59.910 E2.04509
G1 X61.365 Y60.203 E2.05647
G1 X61.518 Y60.538 E2.06784
G1 X61.597 Y60.912 E2.07966
G1 X61.818 Y62.789 E2.13815
G1 X62.137 Y64.669 E2.19716
G1 X62.550 Y66.531 E2.25618
G1 X63.039 Y68.307 E2.31317
G1 X63.632 Y70.120 E2.37217
G1 X64.309 Y71.884 E2.43066
G1 X65.073 Y73.613 E2.48914
G1 X65.923 Y75.301 E2.54762
G1 X66.856 Y76.945 E2.60610
G1 X67.871 Y78.539 E2.66458
G1 X68.963 Y80.081 E2.72305
G1 X70.131 Y81.567 E2.78153
G1 X71.371 Y82.993 E2.84000
G1 X72.690 Y84.368 E2.89895
G1 X74.077 Y85.674 E2.95790
G1 X75.485 Y86.871 E3.01507
G1 X76.305 Y87.462 E3.04634
G1 X77.190 Y87.961 E3.07778
G1 X78.125 Y88.359 E3.10921
G1 X79.098 Y88.651 E3.14066
G1 X80.162 Y88.838 E3.17408
G1 X81.241 Y88.899 E3.20751
G1 X82.319 Y88.832 E3.24094
G1 X83.382 Y88.638 E3.27438
G1 X84.415 Y88.317 E3.30784
G1 X85.415 Y87.871 E3.34172
G1 X86.346 Y87.313 E3.37532
G1 X86.907 Y86.897 E3.39692
G1 X87.808 Y86.129 E3.43355
G1 X88.472 Y85.616 E3.45951
G1 X89.506 Y84.893 E3.49856
G1 X89.996 Y84.515 E3.51769
G1 X90.720 Y83.872 E3.54766
G1 X91.405 Y83.154 E3.57837
G1 X92.034 Y82.373 E3.60939
G1 X92.593 Y81.540 E3.64043
G1 X93.080 Y80.663 E3.67146
G1 X93.490 Y79.748 E3.70249
G1 X93.813 Y78.828 E3.73268
G1 X94.217 Y76.994 E3.79077
G1 X94.324 Y75.163 E3.84752
G1 X94.330 Y73.005 E3.91428
G1 X94.449 Y70.793 E3.98282
G1 X94.669 Y68.665 E4.04903
G1 X95.004 Y66.475 E4.11758
G1 X95.449 Y64.304 E4.18613
G1 X96.001 Y62.159 E4.25469
G1 X96.635 Y60.115 E4.32089
G1 X97.395 Y58.036 E4.38939
G1 X98.259 Y55.998 E4.45790
G1 X99.226 Y54.005 E4.52641
G1 X100.253 Y52.128 E4.59261
G1 X101.410 Y50.240 E4.66113
G1 X102.660 Y48.412 E4.72965
G1 X104.000 Y46.649 E4.79817
G1 X105.376 Y45.011 E4.86437
G1 X106.877 Y43.393 E4.93266
G1 X107.120 Y43.175 E4.94276
G1 X107.302 Y43.055 E4.94950
G1 X107.495 Y42.963 E4.95613
G1 X107.712 Y42.892 E4.96317
G1 X107.922 Y42.853 E4.96977
G1 X108.148 Y42.842 E4.97680
G1 X108.362 Y42.860 E4.98342
G1 X108.577 Y42.908 E4.99023
G1 X108.789 Y42.987 E4.99724
G1 X108.978 Y43.087 E5.00387
G1 X109.158 Y43.215 E5.01070
G1 X109.319 Y43.366 E5.01752
G1 X109.458 Y43.536 E5.02432
G1 X109.572 Y43.724 E5.03112
G1 X109.661 Y43.926 E5.03795
G1 X109.723 Y44.137 E5.04477
G1 X109.754 Y44.346 E5.05131
G1 X109.742 Y44.718 E5.06282
G1 X109.651 Y45.067 E5.07397
G1 X109.485 Y45.395 E5.08536
G1 X109.242 Y45.690 E5.09719
G1 X107.912 Y47.034 E5.15567
G1 X106.641 Y48.455 E5.21468
G1 X105.442 Y49.939 E5.27370
G1 X104.358 Y51.429 E5.33070
G1 X103.311 Y53.022 E5.38969
G1 X102.354 Y54.652 E5.44818
G1 X101.479 Y56.327 E5.50666
G1 X100.688 Y58.044 E5.56514
G1 X99.986 Y59.799 E5.62362
G1 X99.372 Y61.586 E5.68210
G1 X98.847 Y63.402 E5.74058
G1 X98.414 Y65.241 E5.79905
G1 X98.071 Y67.100 E5.85752
G1 X97.820 Y68.988 E5.91647
G1 X97.663 Y70.887 E5.97542
G1 X97.605 Y72.734 E6.03260
G1 X97.654 Y73.743 E6.06387
G1 X97.816 Y74.746 E6.09530
G1 X98.087 Y75.725 E6.12673
G1 X98.466 Y76.668 E6.15818
G1 X98.983 Y77.617 E6.19160
G1 X99.608 Y78.498 E6.22503
G1 X100.333 Y79.299 E6.25846
G1 X101.148 Y80.010 E6.29191
G1 X102.042 Y80.617 E6.32537
G1 X103.033 Y81.128 E6.35986
G1 X104.002 Y81.492 E6.39188
G1 X104.707 Y81.681 E6.41447
G1 X105.868 Y81.906 E6.45107
G1 X106.678 Y82.103 E6.47686
G1 X107.894 Y82.463 E6.51608
G1 X108.494 Y82.610 E6.53521
G1 X109.449 Y82.775 E6.56518
G1 X110.471 Y82.865 E6.59693
G1 X111.440 Y82.867 E6.62693
G1 X112.440 Y82.786 E6.65795
G1 X113.429 Y82.620 E6.68898
G1 X114.400 Y82.370 E6.72002
G1 X115.351 Y82.037 E6.75118
G1 X117.006 Y81.221 E6.80829
G1 X118.504 Y80.162 E6.86504
G1 X120.195 Y78.822 E6.93180
G1 X121.999 Y77.536 E7.00035
G1 X123.800 Y76.381 E7.06655
G1 X125.721 Y75.278 E7.13510
G1 X127.695 Y74.272 E7.20365
G1 X129.717 Y73.366 E7.27221
G1 X131.710 Y72.587 E7.33841
G1 X133.810 Y71.885 E7.40692
G1 X135.942 Y71.290 E7.47542
G1 X138.103 Y70.804 E7.54393
G1 X140.210 Y70.436 E7.61014
G1 X142.408 Y70.164 E7.67865
G1 X144.616 Y70.001 E7.74717
G1 X146.830 Y69.949 E7.81568
G1 X149.044 Y70.008 E7.88420
G1 X151.170 Y70.169 E7.95019
G1 X151.485 Y70.222 E7.96007
G1 X151.699 Y70.291 E7.96703
G1 X151.898 Y70.387 E7.97384
G1 X152.082 Y70.509 E7.98068
G1 X152.244 Y70.649 E7.98731
G1 X152.390 Y70.814 E7.99413
G1 X152.512 Y70.998 E8.00095
G1 X152.609 Y71.195 E8.00777
G1 X152.678 Y71.404 E8.01457
G1 X152.719 Y71.621 E8.02139
G1 X152.731 Y71.841 E8.02823
G1 X152.714 Y72.061 E8.03504
G1 X152.667 Y72.276 E8.04184
G1 X152.592 Y72.482 E8.04864
G1 X152.490 Y72.678 E8.05547
G1 X152.363 Y72.857 E8.06228
G1 X152.214 Y73.017 E8.06901
G1 X151.926 Y73.231 E8.08014
G1 X151.590 Y73.382 E8.09151
G1 X151.230 Y73.456 E8.10288
G1 X150.848 Y73.450 E8.11470
G1 X148.969 Y73.248 E8.17319
G1 X147.065 Y73.140 E8.23220
G1 X145.157 Y73.129 E8.29122
G1 X143.317 Y73.210 E8.34822
G1 X141.418 Y73.385 E8.40721
G1 X139.547 Y73.652 E8.46570
G1 X137.692 Y74.013 E8.52418
G1 X135.857 Y74.465 E8.58266
G1 X134.047 Y75.010 E8.64114
G1 X132.267 Y75.644 E8.69962
G1 X130.520 Y76.366 E8.75809
G1 X128.812 Y77.174 E8.81657
G1 X127.145 Y78.065 E8.87504
G1 X125.512 Y79.046 E8.93399
G1 X123.929 Y80.107 E8.99294
G1 X122.449 Y81.214 E9.05012
G1 X121.691 Y81.881 E9.08139
G1 X121.007 Y82.633 E9.11282
G1 X120.411 Y83.455 E9.14425
G1 X119.910 Y84.340 E9.17570
G1 X119.491 Y85.335 E9.20912
G1 X119.192 Y86.373 E9.24255
G1 X119.017 Y87.440 E9.27598
G1 X118.970 Y88.519 E9.30943
G1 X119.052 Y89.598 E9.34288
G1 X119.265 Y90.672 E9.37676
G1 X119.602 Y91.704 E9.41036
G1 X119.882 Y92.343 E9.43196
G1 X120.430 Y93.393 E9.46859
G1 X120.783 Y94.154 E9.49455
G1 X121.258 Y95.323 E9.53360
G1 X121.518 Y95.884 E9.55273
G1 X121.983 Y96.734 E9.58270
G1 X122.531 Y97.561 E9.61341
G1 X123.152 Y98.348 E9.64443
G1 X123.839 Y99.079 E9.67547
G1 X124.586 Y99.748 E9.70650
G1 X125.387 Y100.352 E9.73753
G1 X126.213 Y100.872 E9.76772
G1 X127.910 Y101.673 E9.82581
G1 X129.672 Y102.185 E9.88256
G1 X131.774 Y102.671 E9.94932
G1 X133.904 Y103.280 E10.01786
G1 X135.930 Y103.967 E10.08407
G1 X137.991 Y104.782 E10.15262
G1 X140.008 Y105.698 E10.22117
G1 X141.977 Y106.714 E10.28973
G1 X143.828 Y107.786 E10.35593
G1 X145.686 Y108.990 E10.42443
G1 X147.481 Y110.287 E10.49294
G1 X149.208 Y111.672 E10.56145
G1 X150.810 Y113.091 E10.62766
G1 X152.393 Y114.639 E10.69617
G1 X153.897 Y116.265 E10.76469
G1 X155.318 Y117.963 E10.83321
G1 X156.609 Y119.669 E10.89940
G1 X157.890 Y121.556 E10.96996
G1 X158.010 Y121.777 E10.97775
G1 X158.086 Y121.983 E10.98453
G1 X158.135 Y122.198 E10.99136
G1 X158.155 Y122.418 E10.99819
G1 X158.145 Y122.638 E11.00502
G1 X158.108 Y122.849 E11.01164
G1 X158.041 Y123.059 E11.01847
G1 X157.947 Y123.258 E11.02529
G1 X157.827 Y123.443 E11.03209
G1 X157.683 Y123.610 E11.03891
G1 X157.518 Y123.756 E11.04574
G1 X157.335 Y123.880 E11.05256
G1 X157.138 Y123.977 E11.05936
G1 X156.930 Y124.047 E11.06616
G1 X156.713 Y124.089 E11.07299
G1 X156.494 Y124.102 E11.07979
G1 X156.277 Y124.085 E11.08653
G1 X155.929 Y123.993 E11.09765
G1 X155.602 Y123.825 E11.10903
G1 X155.319 Y123.590 E11.12040
G1 X155.086 Y123.287 E11.13222
G1 X154.072 Y121.692 E11.19070
G1 X152.969 Y120.136 E11.24972
G1 X151.789 Y118.638 E11.30874
G1 X150.578 Y117.249 E11.36573
G1 X149.258 Y115.874 E11.42473
G1 X147.882 Y114.578 E11.48321
G1 X146.443 Y113.352 E11.54169
G1 X144.945 Y112.199 E11.60018
G1 X143.391 Y111.124 E11.65866
G1 X141.785 Y110.127 E11.71714
G1 X140.132 Y109.212 E11.77561
G1 X138.435 Y108.380 E11.83409
G1 X136.699 Y107.633 E11.89256
G1 X134.914 Y106.967 E11.95151
G1 X133.098 Y106.392 E12.01046
G1 X131.310 Y105.925 E12.06763
G1 X130.315 Y105.748 E12.09890
G1 X129.301 Y105.682 E12.13034
G1 X128.286 Y105.729 E12.16177
G1 X127.283 Y105.889 E12.19322
G1 X126.243 Y106.181 E12.22664
G1 X125.245 Y106.595 E12.26006
G1 X124.302 Y107.123 E12.29350
G1 X123.428 Y107.759 E12.32694
G1 X122.637 Y108.496 E12.36040
G1 X121.930 Y109.332 E12.39428
G1 X121.333 Y110.239 E12.42788
G1 X121.008 Y110.857 E12.44948
G1 X120.529 Y111.940 E12.48611
G1 X120.154 Y112.690 E12.51207
G1 X119.536 Y113.790 E12.55112
G1 X119.259 Y114.343 E12.57025
G1 X118.885 Y115.237 E12.60022
G1 X118.580 Y116.181 E12.63093
G1 X118.352 Y117.157 E12.66195
G1 X118.209 Y118.150 E12.69299
G1 X118.151 Y119.152 E12.72402
G1 X118.179 Y120.154 E12.75504
G1 X118.287 Y121.124 E12.78524
G1 X118.719 Y122.951 E12.84332
G1 X119.417 Y124.647 E12.90008
G1 X120.347 Y126.593 E12.96684
G1 X121.200 Y128.638 E13.03538
G1 X121.926 Y130.651 E13.10159
G1 X122.574 Y132.770 E13.17014
G1 X123.115 Y134.918 E13.23869
G1 X123.548 Y137.091 E13.30725
G1 X123.864 Y139.207 E13.37345
G1 X124.081 Y141.410 E13.44195
G1 X124.187 Y143.622 E13.51046
G1 X124.180 Y145.836 E13.57897
G1 X124.069 Y147.973 E13.64517
G1 X123.846 Y150.176 E13.71369
G1 X123.513 Y152.365 E13.78221
G1 X123.071 Y154.535 E13.85073
G1 X122.542 Y156.608 E13.91692
G1 X121.866 Y158.786 E13.98748
G1 X121.768 Y159.018 E13.99527
G1 X121.655 Y159.206 E14.00205
G1 X121.517 Y159.378 E14.00889
G1 X121.362 Y159.527 E14.01553
G1 X121.184 Y159.657 E14.02235
G1 X120.991 Y159.763 E14.02917
G1 X120.785 Y159.841 E14.03598
G1 X120.565 Y159.893 E14.04298
G1 X120.345 Y159.913 E14.04979
G1 X120.131 Y159.905 E14.05642
G1 X119.914 Y159.867 E14.06325
G1 X119.698 Y159.799 E14.07026
G1 X119.504 Y159.708 E14.07687
G1 X119.320 Y159.589 E14.08367
G1 X119.148 Y159.441 E14.09069
G1 X119.005 Y159.282 E14.09732
G1 X118.885 Y159.107 E14.10386
G1 X118.735 Y158.766 E14.11538
G1 X118.666 Y158.413 E14.12653
G1 X118.673 Y158.045 E14.13792
G1 X118.764 Y157.673 E14.14974
G1 X119.379 Y155.886 E14.20822
G1 X119.908 Y154.054 E14.26724
G1 X120.344 Y152.197 E14.32626
G1 X120.674 Y150.385 E14.38325
G1 X120.926 Y148.495 E14.44225
G1 X121.082 Y146.611 E14.50073
G1 X121.143 Y144.722 E14.55921
G1 X121.110 Y142.832 E14.61770
G1 X120.982 Y140.946 E14.67618
G1 X120.760 Y139.069 E14.73466
G1 X120.444 Y137.206 E14.79313
G1 X120.037 Y135.361 E14.85161
G1 X119.539 Y133.538 E14.91008
G1 X118.947 Y131.727 E14.96902
G1 X118.264 Y129.948 E15.02798
G1 X117.514 Y128.259 E15.08515
G1 X117.032 Y127.371 E15.11642
G1 X116.452 Y126.537 E15.14786
G1 X115.782 Y125.773 E15.17929
G1 X115.031 Y125.088 E15.21074
G1 X114.155 Y124.457 E15.24415
G1 X113.209 Y123.935 E15.27758
G1 X112.208 Y123.527 E15.31102
G1 X111.166 Y123.241 E15.34446
G1 X110.096 Y123.081 E15.37793
G1 X108.982 Y123.051 E15.41242
G1 X107.951 Y123.144 E15.44444
G1 X107.709 Y123.187 E15.45206
G1 X107.234 Y123.280 E15.46703
G1 X106.090 Y123.580 E15.50363
G1 X105.275 Y123.754 E15.52942
G1 X104.024 Y123.958 E15.56864
G1 X103.419 Y124.086 E15.58777
G1 X102.487 Y124.351 E15.61774
G1 X101.527 Y124.713 E15.64948
G1 X100.653 Y125.132 E15.67948
G1 X99.788 Y125.639 E15.71051
G1 X98.969 Y126.218 E15.74154
G1 X98.202 Y126.865 E15.77257
G1 X97.490 Y127.577 E15.80374
G1 X96.352 Y129.031 E15.86085
G1 X95.462 Y130.634 E15.91760
G1 X94.520 Y132.575 E15.98436
G1 X93.453 Y134.516 E16.05290
G1 X92.332 Y136.339 E16.11911
G1 X91.079 Y138.166 E16.18766
G1 X89.737 Y139.929 E16.25621
G1 X88.308 Y141.623 E16.32477
G1 X86.851 Y143.189 E16.39097
G1 X85.264 Y144.733 E16.45947
G1 X83.600 Y146.194 E16.52798
G1 X81.865 Y147.569 E16.59649
G1 X80.125 Y148.815 E16.66270
G1 X78.264 Y150.014 E16.73121
G1 X76.344 Y151.119 E16.79973
G1 X74.372 Y152.126 E16.86824
G1 X72.352 Y153.033 E16.93676
G1 X70.367 Y153.811 E17.00275
G1 X70.060 Y153.900 E17.01262
G1 X69.837 Y153.931 E17.01958
G1 X69.617 Y153.930 E17.02640
G1 X69.398 Y153.901 E17.03324
G1 X69.191 Y153.844 E17.03986
G1 X68.988 Y153.759 E17.04669
G1 X68.798 Y153.647 E17.05351
G1 X68.625 Y153.510 E17.06032
G1 X68.472 Y153.352 E17.06713
G1 X68.341 Y153.175 E17.07395
G1 X68.235 Y152.981 E17.08078
G1 X68.155 Y152.776 E17.08760
G1 X68.104 Y152.562 E17.09440
G1 X68.082 Y152.344 E17.10120
G1 X68.090 Y152.123 E17.10803
G1 X68.126 Y151.906 E17.11483
G1 X68.191 Y151.698 E17.12157
G1 X68.358 Y151.380 E17.13269
G1 X68.595 Y151.099 E17.14407
G1 X68.886 Y150.875 E17.15544
G1 X69.233 Y150.715 E17.16726
G1 X71.014 Y150.082 E17.22574
G1 X72.777 Y149.353 E17.28476
G1 X74.500 Y148.536 E17.34378
G1 X76.123 Y147.664 E17.40077
G1 X77.758 Y146.683 E17.45977
G1 X79.327 Y145.630 E17.51825
G1 X80.843 Y144.500 E17.57673
G1 X82.300 Y143.296 E17.63522
G1 X83.694 Y142.020 E17.69370
G1 X85.023 Y140.676 E17.75218
G1 X86.283 Y139.268 E17.81065
G1 X87.472 Y137.799 E17.86913
G1 X88.587 Y136.273 E17.92760
G1 X89.633 Y134.681 E17.98655
G1 X90.598 Y133.038 E18.04550
G1 X91.451 Y131.399 E18.10267
G1 X91.845 Y130.468 E18.13394
G1 X92.135 Y129.494 E18.16538
G1 X92.315 Y128.495 E18.19681
G1 X92.383 Y127.480 E18.22826
G1 X92.329 Y126.402 E18.26167
G1 X92.148 Y125.337 E18.29510
G1 X91.843 Y124.300 E18.32854
G1 X91.417 Y123.306 E18.36198
G1 X90.875 Y122.371 E18.39544
G1 X90.217 Y121.496 E18.42931
G1 X89.465 Y120.712 E18.46292
G1 X88.935 Y120.257 E18.48452
G1 X87.986 Y119.550 E18.52115
G1 X87.338 Y119.017 E18.54711
G1 X86.403 Y118.169 E18.58616
G1 X85.925 Y117.776 E18.60529
G1 X85.138 Y117.213 E18.63526
G1 X84.285 Y116.705 E18.66597
G1 X83.384 Y116.266 E18.69699
G1 X82.447 Y115.906 E18.72803
G1 X81.484 Y115.626 E18.75906
G1 X80.501 Y115.430 E18.79008
G1 X79.531 Y115.320 E18.82028
G1 X77.654 Y115.334 E18.87836
G1 X75.845 Y115.638 E18.93512
G1 X73.740 Y116.112 E19.00188
G1 X71.557 Y116.488 E19.07042
G1 X69.433 Y116.748 E19.13663
G1 X67.223 Y116.908 E19.20518
G1 X65.008 Y116.957 E19.27373
G1 X62.794 Y116.896 E19.34229
G1 X60.660 Y116.733 E19.40849
G1 X58.464 Y116.455 E19.47699
G1 X56.284 Y116.066 E19.54550
G1 X54.127 Y115.566 E19.61401
G1 X52.068 Y114.983 E19.68021
G1 X49.970 Y114.275 E19.74873
G1 X47.910 Y113.463 E19.81725
G1 X45.893 Y112.550 E19.88577
G1 X43.990 Y111.573 E19.95196
G1 X42.017 Y110.428 E20.02252
G1 X41.813 Y110.281 E20.03031
G1 X41.655 Y110.129 E20.03709
G1 X41.517 Y109.957 E20.04392
G1 X41.404 Y109.767 E20.05076
G1 X41.319 Y109.570 E20.05738
G1 X41.259 Y109.358 E20.06420
G1 X41.229 Y109.140 E20.07103
G1 X41.227 Y108.919 E20.07784
G1 X41.255 Y108.702 E20.08464
G1 X41.314 Y108.483 E20.09166
G1 X41.397 Y108.285 E20.09830
G1 X41.508 Y108.094 E20.10512
G1 X41.643 Y107.921 E20.11191
G1 X41.801 Y107.768 E20.11871
G1 X41.983 Y107.633 E20.12573
G1 X42.170 Y107.529 E20.13236
G1 X42.367 Y107.452 E20.13890
G1 X42.733 Y107.381 E20.15042
G1 X43.093 Y107.392 E20.16157
G1 X43.450 Y107.481 E20.17296
G1 X43.792 Y107.652 E20.18478
G1 X45.397 Y108.649 E20.24326
G1 X47.066 Y109.573 E20.30228
G1 X48.779 Y110.411 E20.36130
G1 X50.473 Y111.136 E20.41829
G1 X52.259 Y111.803 E20.47729
G1 X54.061 Y112.373 E20.53577
G1 X55.889 Y112.854 E20.59425
G1 X57.739 Y113.242 E20.65274
G1 X59.606 Y113.537 E20.71122
G1 X61.485 Y113.738 E20.76970
G1 X63.372 Y113.845 E20.82817
G1 X65.262 Y113.858 E20.88665
G1 X67.150 Y113.778 E20.94512
G1 X69.047 Y113.604 E21.00406
G1 X70.933 Y113.334 E21.06302
G1 X72.747 Y112.979 E21.12019
G1 X73.720 Y112.707 E21.15146
G1 X74.662 Y112.326 E21.18290
G1 X75.556 Y111.844 E21.21433
